X: 252
T: Nao yuanxiao
%%abc-version 2.0
%%abcx-abcm2ps-target-version 5.9.1 (29 Sep 2008)
%%abc-creator hum2abc beta
%%abcx-conversion-date 2013/10/02 07:52:29
%%abc-edited-by Helmut Schaffrath
%%humdrum-veritas 1019899335
%%humdrum-veritas-data 2564333800
%%continueall 1
%%barnumbers 0
L: 1/16
M: 2/4
K: G
B2B4z2 [I:setbarnb 1]| 
B2 B2 B d B A | 
E2G6 | 
B2 B2 A B A G | 
E2 G2B,4 | 
B B2 B A B A G | 
E2 G2B,4 | 
G2 E DB,4 | 
G2 E DB,4 | 
B B2 B A B A G | 
E G E DB,4 | 
G2 E DB,4 | 
F2 E DB,4 | 
B2 B2 A B A G | 
E2 G2B,4 | 
B z B zz4 | 
B z B zz4 | 
B2 B2 E G E D | 
B d B A E2 G2 | 
d d d B A G A B | 
G2 F EB,4 | 
F2 B,2D4 |]  



